X: 7424
T: Cloone, The
R: reel
M: 4/4
K: Cmajor
dcAE G2GA|GEcE G2GA|dcAE ~G3A|GEc(E {G}E)DDc|
dcAE G2GA|GEcE G2GA|c2ec gcec|1 dcAG EDDc:|2 dcAG EDDB||
c2ec gcec|~g3a gedB|c2ec gcec|dcAG EDDB|
c2ec gcec|~g3a ged(g|{a}g)edc dfed|1 cAG(E {G}E)DDB:|2 cAGE EDD2||

